X: 7559
T: Cock Your Pistol Charlie
R: slide
M: 12/8
K: Edorian
E2e e2f g2f e2c|d2B A2F D2E FED|
E2e e2f g2f e2c|d2B A2F E3 E2D:|
|:E2B B2A B2A F2A|d2B A2F D2E FED|
E2B B2A B2A F2A|Bcd A2F E3 E2D:|

